icons/knowledge-graph-new-24.svg

<svg id="icons" xmlns="http://www.w3.org/2000/svg" viewBox="0 0 24 24"><path d="M9.00012,6,9,6.00006V6ZM3.5,12A2.50263,2.50263,0,0,1,1,9.5a2.46742,2.46742,0,0,1,.1015-.666.98547.98547,0,0,0,.57038.20159.99321.99321,0,0,0,.33435-.06652C2.00586,8.98,2,8.98907,2,9v1a1,1,0,0,0,1,1H4a1,1,0,0,0,1-1,.9864.9864,0,0,0,.96637-.83313A2.45827,2.45827,0,0,1,6,9.5c0,.01447-.004.02783-.00427.0423l4.22607.93933A2.501,2.501,0,0,1,11.70154,9.1427l-.39533-3.16229A2.47324,2.47324,0,0,1,9.907,5.41064.98672.98672,0,0,0,10,5V4a1,1,0,0,0,1,1h1a1,1,0,0,0,1-1V3a1,1,0,0,0-1-1H11a1,1,0,0,0-1,1V4a.99442.99442,0,0,0-.9505-.99,2.49821,2.49821,0,1,1,4.88922,1.02673l4.532,2.014A2.494,2.494,0,1,1,20.5,10c-.0213,0-.041-.00574-.06219-.00629l-1.90119,8.239a2.49561,2.49561,0,1,1-3.52734,2.35882l-7.18189-1.197A2.49613,2.49613,0,1,1,4.48163,16.2218l-.93891-4.22613C3.52814,11.99591,3.51465,12,3.5,12ZM7,19V18a1,1,0,0,0-1-1H5a1,1,0,0,0-1,1v1a1,1,0,0,0,1,1H6A1,1,0,0,0,7,19Zm.58356-1.87653A2.483,2.483,0,0,1,7.99072,18.408l7.18189,1.19733a2.49436,2.49436,0,0,1,.70642-.99292l-2.63275-4.73889a2.4051,2.4051,0,0,1-2.12281-.29ZM18,19H17a1,1,0,0,0-1,1v1a1,1,0,0,0,1,1h1a1,1,0,0,0,1-1V20A1,1,0,0,0,18,19Zm1.46326-9.23175a2.50177,2.50177,0,0,1-.91986-.731L14.9054,10.856a2.41185,2.41185,0,0,1-.78443,2.53155l2.63275,4.73889A2.465,2.465,0,0,1,17.5,18c.02124,0,.04095.00574.06207.00629ZM19,7V8a1,1,0,0,0,1,1h1a1,1,0,0,0,1-1V7a1,1,0,0,0-1-1H20A1,1,0,0,0,19,7ZM12.29846,5.8573l.39527,3.16229a2.48293,2.48293,0,0,1,1.76306.9433l3.63775-1.81915a2.30171,2.30171,0,0,1-.03332-1.18036L13.52942,4.9491A2.49919,2.49919,0,0,1,12.29846,5.8573ZM11,11v1a1,1,0,0,0,1,1h1a1,1,0,0,0,1-1V11a1,1,0,0,0-1-1H12A1,1,0,0,0,11,11Zm-6.48181.77832.93939,4.226C5.47205,16.004,5.48547,16,5.5,16a2.48323,2.48323,0,0,1,1.37653.41644l3.53991-3.53991A2.48367,2.48367,0,0,1,10,11.5c0-.01453.004-.028.00427-.04248l-4.22619-.939A2.50868,2.50868,0,0,1,4.51819,11.77832ZM1.67157,8.03552.96448,7.32843,2.41577,5.87714A2.48313,2.48313,0,0,1,2.05042,5H0V4H2.05042a2.48313,2.48313,0,0,1,.36535-.87714L.96448,1.67157,1.67157.96448,3.12286,2.41571A2.483,2.483,0,0,1,4,2.05042V0H5V2.05042a2.483,2.483,0,0,1,.87714.36529L7.32843.96448l.70709.70709L6.58423,3.12286A2.48313,2.48313,0,0,1,6.94958,4H9V5H6.94958a2.48313,2.48313,0,0,1-.36535.87714L8.03552,7.32843l-.70709.70709L5.87714,6.58423A2.482,2.482,0,0,1,5,6.94958V9H4V6.94958a2.482,2.482,0,0,1-.87714-.36535ZM3,4.5A1.5,1.5,0,1,0,4.5,3,1.502,1.502,0,0,0,3,4.5Z"/><path fill="none" d="M0 0h24v24H0z"/></svg>

<svg xmlns="http://www.w3.org/2000/svg" viewBox="0 0 24 24"><path d="M9 6zm-5.5 6A2.503 2.503 0 0 1 1 9.5a2.467 2.467 0 0 1 .102-.666.985.985 0 0 0 .57.202.993.993 0 0 0 .334-.067C2.006 8.98 2 8.99 2 9v1a1 1 0 0 0 1 1h1a1 1 0 0 0 1-1 .986.986 0 0 0 .966-.833A2.458 2.458 0 0 1 6 9.5c0 .014-.004.028-.004.042l4.226.94a2.501 2.501 0 0 1 1.48-1.34l-.396-3.162a2.473 2.473 0 0 1-1.399-.57A.987.987 0 0 0 10 5V4a1 1 0 0 0 1 1h1a1 1 0 0 0 1-1V3a1 1 0 0 0-1-1h-1a1 1 0 0 0-1 1v1a.994.994 0 0 0-.95-.99 2.498 2.498 0 1 1 4.889 1.027L18.47 6.05A2.494 2.494 0 1 1 20.5 10c-.021 0-.041-.006-.062-.006l-1.901 8.239a2.496 2.496 0 1 1-3.528 2.359l-7.182-1.197a2.496 2.496 0 1 1-3.345-3.173l-.94-4.226c-.014 0-.027.004-.042.004zM7 19v-1a1 1 0 0 0-1-1H5a1 1 0 0 0-1 1v1a1 1 0 0 0 1 1h1a1 1 0 0 0 1-1zm.584-1.877a2.483 2.483 0 0 1 .407 1.285l7.182 1.197a2.494 2.494 0 0 1 .706-.993l-2.633-4.738a2.405 2.405 0 0 1-2.123-.29zM18 19h-1a1 1 0 0 0-1 1v1a1 1 0 0 0 1 1h1a1 1 0 0 0 1-1v-1a1 1 0 0 0-1-1zm1.463-9.232a2.502 2.502 0 0 1-.92-.73l-3.638 1.818a2.412 2.412 0 0 1-.784 2.532l2.633 4.738A2.465 2.465 0 0 1 17.5 18c.021 0 .04.006.062.006zM19 7v1a1 1 0 0 0 1 1h1a1 1 0 0 0 1-1V7a1 1 0 0 0-1-1h-1a1 1 0 0 0-1 1zm-6.702-1.143l.396 3.163a2.483 2.483 0 0 1 1.763.943l3.638-1.82a2.302 2.302 0 0 1-.034-1.18L13.53 4.95a2.5 2.5 0 0 1-1.23.908zM11 11v1a1 1 0 0 0 1 1h1a1 1 0 0 0 1-1v-1a1 1 0 0 0-1-1h-1a1 1 0 0 0-1 1zm-6.482.778l.94 4.226c.014 0 .027-.004.042-.004a2.483 2.483 0 0 1 1.377.416l3.54-3.54A2.484 2.484 0 0 1 10 11.5c0-.015.004-.028.004-.042l-4.226-.94a2.509 2.509 0 0 1-1.26 1.26zM1.672 8.036l-.708-.708 1.452-1.45A2.483 2.483 0 0 1 2.05 5H0V4h2.05a2.483 2.483 0 0 1 .366-.877L.964 1.672l.708-.708 1.45 1.452A2.483 2.483 0 0 1 4 2.05V0h1v2.05a2.483 2.483 0 0 1 .877.366L7.328.964l.708.708-1.452 1.45A2.483 2.483 0 0 1 6.95 4H9v1H6.95a2.483 2.483 0 0 1-.366.877l1.452 1.451-.708.708-1.45-1.452A2.482 2.482 0 0 1 5 6.95V9H4V6.95a2.482 2.482 0 0 1-.877-.366zM3 4.5A1.5 1.5 0 1 0 4.5 3 1.502 1.502 0 0 0 3 4.5z"/><path fill="none" d="M0 0h24v24H0z"/></svg>
